<?xml version="1.0" encoding="UTF-8"?>
<map version="1.11" tiledversion="1.11.2" orientation="orthogonal" renderorder="right-down" width="21" height="14" tilewidth="40" tileheight="40" infinite="0" nextlayerid="14" nextobjectid="45">
 <editorsettings>
  <export target="data.lua" format="lua"/>
 </editorsettings>
 <properties>
  <property name="border" value="core"/>
  <property name="light" type="bool" value="true"/>
  <property name="music" value="gateway"/>
  <property name="name" value="The Gateway - Danger Zone"/>
 </properties>
 <tileset firstgid="1" source="../../../tilesets/Core Tiles.tsx"/>
 <tileset firstgid="801" source="../../../tilesets/gateway.tsx"/>
 <objectgroup id="13" name="objects_gonerbg">
  <object id="39" name="gonerbg" x="0" y="0" width="40" height="40"/>
 </objectgroup>
 <layer id="1" name="Tile Layer 1" width="21" height="14">
  <data encoding="csv">
807,807,807,807,807,807,807,807,807,807,807,941,0,0,0,0,0,0,0,0,0,
807,807,807,807,807,807,807,807,807,807,807,941,0,0,0,0,0,0,0,0,0,
804,804,804,804,804,804,804,804,804,804,804,939,0,0,0,0,0,0,0,0,0,
836,836,836,836,836,836,836,836,836,836,837,971,0,0,0,0,0,0,0,0,0,
900,900,900,900,900,900,900,900,900,900,901,1003,0,0,0,0,0,0,0,0,0,
834,865,866,865,866,897,866,833,898,897,930,1035,0,0,0,0,0,0,0,0,0,
847,847,847,847,1160,1160,1160,847,847,847,847,1104,1105,1105,1105,1105,1105,1105,1105,1105,1105,
879,879,879,879,1192,1192,1192,879,879,879,879,1111,1112,1112,1112,1112,1112,1112,1112,1112,1112,
911,911,911,911,1223,1192,1225,911,911,911,911,1143,1144,1144,1144,1144,1144,1144,1144,1144,1144,
1108,1109,1109,1109,974,975,976,1109,1109,1109,1110,0,0,1198,1199,0,0,0,0,1198,1199,
1140,1141,1141,1141,974,975,976,1141,1141,1141,1142,0,0,1230,1231,0,0,0,0,1230,1231,
1172,1173,1173,1173,974,975,976,1173,1173,1173,1174,0,0,1260,1261,0,0,0,0,1260,1261,
0,0,0,0,974,975,976,0,0,0,0,0,0,0,0,0,0,0,0,0,0,
0,0,0,0,974,975,976,0,0,0,0,0,0,0,0,0,0,0,0,0,0
</data>
 </layer>
 <layer id="5" name="water" width="21" height="14" offsetx="0" offsety="-4">
  <data encoding="csv">
0,0,0,0,0,0,0,0,0,0,0,0,0,0,0,0,0,0,0,0,0,
0,0,0,0,0,0,0,0,0,0,0,0,0,0,0,0,0,0,0,0,0,
0,0,0,0,0,0,0,0,0,0,0,0,0,0,0,0,0,0,0,0,0,
0,0,0,0,0,0,0,0,0,0,0,0,0,0,0,0,0,0,0,0,0,
0,0,0,0,0,0,0,0,0,0,0,0,0,0,0,0,0,0,0,0,0,
0,0,0,0,0,0,0,0,0,0,0,0,0,0,0,0,0,0,0,0,0,
0,0,0,0,0,0,0,0,0,0,0,0,0,0,0,0,0,0,0,0,0,
0,0,0,0,0,0,0,0,0,0,0,0,0,0,0,0,0,0,0,0,0,
0,0,0,0,0,0,0,0,0,0,0,0,0,0,0,0,0,0,0,0,0,
0,0,0,0,0,0,0,0,0,0,0,0,0,0,0,0,0,0,0,0,0,
0,0,0,0,0,0,0,0,0,0,0,0,0,0,0,0,0,0,0,0,0,
1089,1090,1091,1092,0,0,0,1089,1090,1091,1092,0,0,0,0,0,0,0,0,0,0,
0,0,0,0,0,0,0,0,0,0,0,0,0,0,0,0,0,0,0,0,0,
0,0,0,0,0,0,0,0,0,0,0,0,0,0,0,0,0,0,0,0,0
</data>
 </layer>
 <layer id="6" name="wall objects" width="21" height="14">
  <data encoding="csv">
0,0,0,0,0,0,0,0,0,0,0,0,0,0,0,0,0,0,0,0,0,
0,0,0,0,0,0,0,0,0,0,0,0,0,0,0,0,0,0,0,0,0,
0,0,0,0,0,0,0,0,0,0,0,0,0,0,0,0,0,0,0,0,0,
0,0,0,0,0,0,0,0,0,0,0,0,0,0,0,0,0,0,0,0,0,
0,1036,1046,1038,1036,1069,1038,0,0,0,0,0,0,0,0,0,0,0,0,0,0,
0,0,0,0,0,0,0,0,0,0,0,0,0,0,0,0,0,0,0,0,0,
0,0,0,0,0,0,0,0,0,0,0,0,0,0,0,0,0,0,0,0,0,
0,0,0,0,0,0,0,0,0,0,0,0,0,0,0,0,0,0,0,0,0,
0,0,0,0,0,0,0,0,0,0,0,0,0,0,0,0,0,0,0,0,0,
0,0,0,0,0,0,0,0,0,0,0,0,0,0,0,0,0,0,0,0,0,
0,0,0,0,0,0,0,0,0,0,0,0,0,0,0,0,0,0,0,0,0,
0,0,0,0,0,0,0,0,0,0,0,0,0,0,0,0,0,0,0,0,0,
0,0,0,0,0,0,0,0,0,0,0,0,0,0,0,0,0,0,0,0,0,
0,0,0,0,0,0,0,0,0,0,0,0,0,0,0,0,0,0,0,0,0
</data>
 </layer>
 <layer id="7" name="lamp bases" width="21" height="14">
  <data encoding="csv">
0,0,0,0,0,0,0,0,0,0,0,0,0,0,0,0,0,0,0,0,0,
0,0,0,0,0,0,0,0,0,0,0,0,0,0,0,0,0,0,0,0,0,
0,0,0,0,0,0,0,0,0,0,0,0,0,0,0,0,0,0,0,0,0,
0,0,0,0,0,0,0,0,0,0,0,0,0,0,0,0,0,0,0,0,0,
0,0,0,0,0,0,0,0,0,0,0,0,0,0,0,0,0,0,0,0,0,
0,0,0,0,0,0,0,0,0,0,1071,1072,1073,1074,1072,1073,1074,1072,1073,1074,1072,
0,0,0,0,0,0,0,0,0,0,0,0,0,0,0,0,0,0,0,0,0,
0,0,0,0,0,0,0,0,0,0,0,0,0,0,0,0,0,0,0,0,0,
0,0,0,0,0,0,0,0,0,0,0,0,0,0,0,0,0,0,0,0,0,
0,0,0,0,0,0,0,0,0,0,0,0,0,0,0,0,0,0,0,0,0,
0,0,0,0,0,0,0,0,0,0,0,0,0,0,0,0,0,0,0,0,0,
0,0,0,0,0,0,0,0,0,0,0,0,0,0,0,0,0,0,0,0,0,
0,0,0,0,0,0,0,0,0,0,0,0,0,0,0,0,0,0,0,0,0,
0,0,0,0,0,0,0,0,0,0,0,0,0,0,0,0,0,0,0,0,0
</data>
 </layer>
 <objectgroup color="#0000ff" id="2" name="collisions">
  <object id="32" x="0" y="200" width="840" height="40"/>
  <object id="36" x="0" y="360" width="159.841" height="40"/>
  <object id="37" x="280" y="360" width="560" height="40"/>
  <object id="40" x="280" y="400" width="40" height="160"/>
  <object id="41" x="120" y="400" width="40" height="160"/>
 </objectgroup>
 <objectgroup color="#ff00ff" id="3" name="objects">
  <object id="9" name="interactable" x="200" y="160" width="40" height="80">
   <properties>
    <property name="cutscene" value="coreTerminals.terminal1"/>
   </properties>
  </object>
  <object id="11" name="floormirror" x="440" y="242" width="399.5" height="110"/>
  <object id="30" name="transition" x="160" y="560" width="120" height="40">
   <properties>
    <property name="map" value="shelter/coreleadup"/>
    <property name="marker" value="exitingforreal"/>
   </properties>
  </object>
  <object id="35" name="transition" x="840" y="240" width="40" height="120">
   <properties>
    <property name="map" value="gateway/gateway2"/>
    <property name="marker" value="spawn"/>
   </properties>
  </object>
  <object id="42" name="transition" x="-40" y="240" width="40" height="120">
   <properties>
    <property name="map" value="gateway/gateway2"/>
    <property name="marker" value="spawn"/>
   </properties>
  </object>
  <object id="43" name="forcefield" x="40" y="240" width="40" height="120">
   <properties>
    <property name="plotMax" value="*gateway_lockdown_off"/>
   </properties>
  </object>
  <object id="44" name="interactable" x="80" y="160" width="40" height="80">
   <properties>
    <property name="cutscene" value="coreTerminals.driveStairwell"/>
   </properties>
  </object>
 </objectgroup>
 <objectgroup color="#5500ff" id="4" name="markers">
  <object id="1" name="spawn" x="220" y="520">
   <point/>
  </object>
  <object id="24" name="exiting" x="800" y="300">
   <point/>
  </object>
 </objectgroup>
 <layer id="12" name="Tile Layer 9" width="21" height="14">
  <data encoding="csv">
0,0,0,0,0,0,0,0,0,0,0,0,0,0,0,0,0,0,0,0,0,
0,0,0,0,0,0,0,0,0,0,0,0,0,0,0,0,0,0,0,0,0,
0,0,0,0,0,0,0,0,0,0,0,0,0,0,0,0,0,0,0,0,0,
0,0,0,0,0,0,0,0,0,0,0,0,0,0,0,0,0,0,0,0,0,
0,0,0,0,0,0,0,0,0,0,0,0,0,0,0,0,0,0,0,0,0,
0,0,0,0,0,0,0,0,0,0,0,0,0,0,0,0,0,0,0,0,0,
0,0,0,0,0,0,0,0,0,0,0,0,0,0,0,0,0,0,0,0,0,
0,0,0,0,0,0,0,0,0,0,0,0,0,0,0,0,0,0,0,0,0,
0,0,0,0,0,0,0,0,0,0,0,0,0,0,0,0,0,0,0,0,0,
0,0,0,0,0,0,0,0,0,0,0,0,0,0,0,0,0,0,0,0,0,
0,0,0,0,0,0,0,0,0,0,0,0,0,0,0,0,0,0,0,0,0,
0,0,0,0,0,0,0,0,0,0,0,0,0,0,0,0,0,0,0,0,0,
0,0,0,0,0,0,0,0,0,0,0,0,0,0,0,0,0,0,0,0,0,
0,0,0,0,0,0,0,0,0,0,0,0,0,0,0,0,0,0,0,0,0
</data>
 </layer>
 <layer id="8" name="above-player stuff" width="21" height="14" offsetx="-15" offsety="50">
  <data encoding="csv">
0,0,0,0,0,0,0,0,0,0,0,0,0,0,0,0,0,0,0,0,0,
0,0,0,0,0,0,0,0,0,0,0,0,0,0,0,0,0,0,0,0,0,
0,0,0,0,0,0,0,0,0,0,0,0,0,0,0,0,0,0,0,0,0,
0,0,0,0,0,0,0,0,0,0,0,0,0,0,0,0,0,0,0,0,0,
0,0,0,0,0,0,0,0,0,0,0,0,0,0,0,0,0,0,0,0,0,
0,0,0,0,0,0,0,0,0,0,0,0,0,0,0,0,0,0,0,0,0,
0,1102,1103,0,0,0,0,0,0,1102,1103,0,0,0,0,0,0,0,0,0,0,
0,1134,1135,0,0,0,0,0,0,1134,1135,0,0,0,0,0,0,0,0,0,0,
0,1166,1167,0,0,0,0,0,0,1166,1167,0,0,0,0,0,0,0,0,0,0,
0,1198,1199,0,0,0,0,0,0,1198,1199,0,0,0,0,0,0,0,0,0,0,
0,1230,1231,0,0,0,0,0,0,1230,1231,0,0,0,0,0,0,0,0,0,0,
0,1260,1261,0,0,0,0,0,0,1260,1261,0,0,0,0,0,0,0,0,0,0,
0,0,0,0,0,0,0,0,0,0,0,0,0,0,0,0,0,0,0,0,0,
0,0,0,0,0,0,0,0,0,0,0,0,0,0,0,0,0,0,0,0,0
</data>
 </layer>
 <layer id="10" name="wateroffset" width="21" height="14" offsetx="-15" offsety="26">
  <data encoding="csv">
0,0,0,0,0,0,0,0,0,0,0,0,0,0,0,0,0,0,0,0,0,
0,0,0,0,0,0,0,0,0,0,0,0,0,0,0,0,0,0,0,0,0,
0,0,0,0,0,0,0,0,0,0,0,0,0,0,0,0,0,0,0,0,0,
0,0,0,0,0,0,0,0,0,0,0,0,0,0,0,0,0,0,0,0,0,
0,0,0,0,0,0,0,0,0,0,0,0,0,0,0,0,0,0,0,0,0,
0,0,0,0,0,0,0,0,0,0,0,0,0,0,0,0,0,0,0,0,0,
0,0,0,0,0,0,0,0,0,0,0,0,0,0,0,0,0,0,0,0,0,
0,0,0,0,0,0,0,0,0,0,0,0,0,0,0,0,0,0,0,0,0,
0,0,0,0,0,0,0,0,0,0,0,0,0,0,0,0,0,0,0,0,0,
0,0,0,0,0,0,0,0,0,0,0,0,0,0,0,0,0,0,0,0,0,
0,0,0,0,0,0,0,0,0,0,0,0,0,0,0,0,0,0,0,0,0,
0,0,0,0,0,0,0,0,0,0,0,0,0,1057,1058,0,0,0,0,1057,1058,
1148,1090,1091,0,0,0,0,0,0,1090,1091,0,0,0,0,0,0,0,0,0,0,
0,0,0,0,0,0,0,0,0,0,0,0,0,0,0,0,0,0,0,0,0
</data>
 </layer>
 <layer id="11" name="wateroffset2" width="21" height="14" offsetx="0" offsety="16">
  <data encoding="csv">
0,0,0,0,0,0,0,0,0,0,0,0,0,0,0,0,0,0,0,0,0,
0,0,0,0,0,0,0,0,0,0,0,0,0,0,0,0,0,0,0,0,0,
0,0,0,0,0,0,0,0,0,0,0,0,0,0,0,0,0,0,0,0,0,
0,0,0,0,0,0,0,0,0,0,0,0,0,0,0,0,0,0,0,0,0,
0,0,0,0,0,0,0,0,0,0,0,0,0,0,0,0,0,0,0,0,0,
0,0,0,0,0,0,0,0,0,0,0,0,0,0,0,0,0,0,0,0,0,
0,0,0,0,0,0,0,0,0,0,0,0,0,0,0,0,0,0,0,0,0,
0,0,0,0,0,0,0,0,0,0,0,0,0,0,0,0,0,0,0,0,0,
0,0,0,0,0,0,0,0,0,0,0,0,0,0,0,0,0,0,0,0,0,
0,0,0,0,0,0,0,0,0,0,0,0,0,0,0,0,0,0,0,0,0,
0,0,0,0,0,0,0,0,0,0,0,0,0,0,0,0,0,0,0,0,0,
0,0,0,0,0,0,0,0,0,0,0,0,0,1089,1090,0,0,0,0,1089,1090,
0,0,0,0,0,0,0,0,0,1148,0,0,0,0,0,0,0,0,0,1057,1058,
0,0,0,0,0,0,0,0,0,0,0,0,0,0,0,0,0,0,0,0,0
</data>
 </layer>
 <layer id="9" name="Tile Layer 6" width="21" height="14" offsetx="19" offsety="52" parallaxx="1.05" parallaxy="0.96">
  <data encoding="csv">
0,0,0,0,0,0,0,0,0,0,0,0,0,0,0,0,0,0,0,0,0,
0,0,0,0,0,0,0,0,0,0,0,0,0,0,0,0,0,0,0,0,0,
0,0,0,0,0,0,0,0,0,0,0,0,0,0,0,0,0,0,0,0,0,
0,0,0,0,0,0,0,0,0,0,0,0,0,0,0,0,0,0,0,0,0,
0,0,0,0,0,0,0,0,0,0,0,0,0,0,0,0,0,0,0,0,0,
0,0,0,0,0,0,0,0,0,0,0,0,0,0,0,0,0,0,0,0,0,
0,0,0,0,0,0,0,0,0,0,0,0,0,0,0,0,0,0,0,0,0,
0,0,0,0,0,0,0,0,0,0,0,0,0,0,0,0,0,0,0,0,0,
0,0,0,0,0,0,0,0,0,0,0,0,0,0,0,0,0,0,0,0,0,
0,0,0,0,0,0,0,0,0,0,0,0,0,0,0,0,0,0,0,0,0,
0,0,0,0,0,0,0,0,0,0,0,0,0,0,0,0,0,0,0,0,0,
0,0,0,0,0,0,0,0,0,0,0,0,0,0,0,0,0,0,0,0,0,
0,0,0,0,0,0,0,0,0,0,0,0,0,0,0,0,0,0,0,0,0,
0,0,0,0,0,0,0,0,0,0,0,0,0,0,0,0,0,0,0,0,0
</data>
 </layer>
</map>
