<?xml version="1.0" encoding="UTF-8"?>
<map version="1.10" tiledversion="1.11.2" orientation="orthogonal" renderorder="right-down" width="22" height="16" tilewidth="32" tileheight="32" infinite="0" nextlayerid="13" nextobjectid="141">
 <editorsettings>
  <export target="livingroom.lua" format="lua"/>
 </editorsettings>
 <properties>
  <property name="border" value="leaves"/>
  <property name="light" type="bool" value="true"/>
  <property name="music" value="noellehouse"/>
 </properties>
 <imagelayer id="2" name="house">
  <image source="../../../../../assets/sprites/backgrounds/livingroom normal.png" width="704" height="512"/>
 </imagelayer>
 <layer id="1" name="Tile Layer 1" width="22" height="16">
  <data encoding="csv">
0,0,0,0,0,0,0,0,0,0,0,0,0,0,0,0,0,0,0,0,0,0,
0,0,0,0,0,0,0,0,0,0,0,0,0,0,0,0,0,0,0,0,0,0,
0,0,0,0,0,0,0,0,0,0,0,0,0,0,0,0,0,0,0,0,0,0,
0,0,0,0,0,0,0,0,0,0,0,0,0,0,0,0,0,0,0,0,0,0,
0,0,0,0,0,0,0,0,0,0,0,0,0,0,0,0,0,0,0,0,0,0,
0,0,0,0,0,0,0,0,0,0,0,0,0,0,0,0,0,0,0,0,0,0,
0,0,0,0,0,0,0,0,0,0,0,0,0,0,0,0,0,0,0,0,0,0,
0,0,0,0,0,0,0,0,0,0,0,0,0,0,0,0,0,0,0,0,0,0,
0,0,0,0,0,0,0,0,0,0,0,0,0,0,0,0,0,0,0,0,0,0,
0,0,0,0,0,0,0,0,0,0,0,0,0,0,0,0,0,0,0,0,0,0,
0,0,0,0,0,0,0,0,0,0,0,0,0,0,0,0,0,0,0,0,0,0,
0,0,0,0,0,0,0,0,0,0,0,0,0,0,0,0,0,0,0,0,0,0,
0,0,0,0,0,0,0,0,0,0,0,0,0,0,0,0,0,0,0,0,0,0,
0,0,0,0,0,0,0,0,0,0,0,0,0,0,0,0,0,0,0,0,0,0,
0,0,0,0,0,0,0,0,0,0,0,0,0,0,0,0,0,0,0,0,0,0,
0,0,0,0,0,0,0,0,0,0,0,0,0,0,0,0,0,0,0,0,0,0
</data>
 </layer>
 <objectgroup id="6" name="collisions"/>
 <objectgroup id="4" name="markers">
  <object id="1" name="spawn1" x="38.5" y="310.5">
   <point/>
  </object>
  <object id="29" name="offscreen" x="-120.554" y="307.59">
   <point/>
  </object>
 </objectgroup>
 <objectgroup id="8" name="objects">
  <object id="116" name="interactable" x="244" y="512" width="94" height="35">
   <properties>
    <property name="solid" type="bool" value="true"/>
    <property name="text1" value="* No need to go back..."/>
   </properties>
  </object>
  <object id="120" name="interactable" x="569.756" y="169.815" width="94.0909" height="32">
   <properties>
    <property name="cutscene" value="nightCutscenes.basementBlock"/>
    <property name="solid" type="bool" value="true"/>
   </properties>
  </object>
  <object id="127" name="transition" x="-30" y="224" width="30.0909" height="160">
   <properties>
    <property name="map" value="noelles house/kitchen"/>
    <property name="marker" value="spawn"/>
   </properties>
  </object>
  <object id="128" name="interactable" x="124.182" y="222">
   <properties>
    <property name="solid" type="bool" value="true"/>
    <property name="text1" value="* It's a nicely decorated couch."/>
   </properties>
   <polygon points="0,0 129.455,0.181818 140.545,-11.6364 140.909,-19.8182 -10.1818,-19.8182 -10.1818,-12 -3.81818,-0.181818"/>
  </object>
  <object id="140" name="interactable" x="370.955" y="329" width="165.091" height="106.667">
   <properties>
    <property name="solid" type="bool" value="false"/>
    <property name="text1" value="* The laptop screen is full of spreadsheet windows."/>
   </properties>
  </object>
 </objectgroup>
 <objectgroup color="#0000ff" id="9" name="collision">
  <object id="131" x="374" y="432">
   <polygon points="0,0 0.0909091,-85.8182 159.727,-86 160,0 152.273,-0.0909091 152.091,-10 8,-10.0909 8,0"/>
  </object>
  <object id="132" x="338.25" y="511.75">
   <polyline points="0,0 0,-73.5 203.5,-74 204,-177.5 252.25,-225.75 357.25,-225.75 357.5,-310 -298.25,-309.75 -298.5,-270 -338,-270.25"/>
  </object>
  <object id="133" x="0.25" y="376">
   <polyline points="0,0 39.5,0 39.625,61.875 243.5,61.875 243.5,135.375"/>
  </object>
  <object id="135" x="243.754" y="511.375">
   <polyline points="0,0 -0.0117188,0.730469"/>
  </object>
  <object id="137" x="45.9091" y="422">
   <polygon points="0,0 0.181818,-23.9091 1.81818,-24 2.27273,-26 6,-25.9091 5.90909,-29.8182 0.0909091,-30.2727 0,-31.8182 -1.81818,-32 -1.90909,-34 -4.09091,-33.9091 -4,-35.9091 1.81818,-36 1.90909,-38 4.45455,-38 4.18182,-43.9091 6.09091,-44 6.09091,-46 0.181818,-45.9091 -3.81818,-50.0909 -3.72727,-51.9091 4,-52 14,-63.8182 18.2727,-75.8182 14.0909,-78 21.1818,-85.0909 27.0909,-79.1818 23.0909,-74.9091 23.1818,-70.9091 29.9091,-63.9091 30.1818,-60 36.1818,-54 40,-53.9091 40.0909,-51.9091 46.1818,-51.9091 42.0909,-46.2727 34,-46.0909 34,-41.9091 38.2727,-37.8182 42,-38 42.0909,-36 48,-36 43.9091,-30 36.2727,-30.0909 36,-26 40.0909,-25.9091 40.0909,-24 41.9091,-24.0909 41.9091,-0.0909091 32.0909,13.9091 14.2727,15.7273 4,8.27273"/>
  </object>
  <object id="138" x="67.75" y="215.75">
   <polygon points="0,0 18.125,0.25 24.125,-3.875 24.25,-11.375 21.75,-13.5 -1.875,-13.875 -5.375,-9.75 -5.75,-4"/>
  </object>
  <object id="139" x="427.636" y="345.273">
   <polygon points="0,0 16.3636,-9.27273 16.5455,-35.2727 18.5455,-37.2727 24,-37.2727 30.3636,-29.8182 33.8182,-29.0909 37.0909,-33.0909 41.8182,-33.6364 45.8182,-29.4545 46.3636,-0.181818 46.5455,0.727273"/>
  </object>
 </objectgroup>
 <objectgroup color="#ff0000" id="10" name="paths"/>
 <objectgroup color="#00c000" id="11" name="controllers"/>
</map>
