<?xml version="1.0" encoding="UTF-8"?>
<map version="1.10" tiledversion="1.11.2" orientation="orthogonal" renderorder="right-down" width="14" height="10" tilewidth="40" tileheight="40" infinite="0" nextlayerid="7" nextobjectid="79">
 <editorsettings>
  <export target="awakening.lua" format="lua"/>
 </editorsettings>
 <properties>
  <property name="border" value="shelter"/>
  <property name="light" type="bool" value="true"/>
  <property name="music" value="in-the-shelter"/>
 </properties>
 <layer id="1" name="Tile Layer 1" width="14" height="10">
  <data encoding="csv">
0,0,0,0,0,0,0,0,0,0,0,0,0,0,
0,0,0,0,0,0,0,0,0,0,0,0,0,0,
0,0,0,0,0,0,0,0,0,0,0,0,0,0,
0,0,0,0,0,0,0,0,0,0,0,0,0,0,
0,0,0,0,0,0,0,0,0,0,0,0,0,0,
0,0,0,0,0,0,0,0,0,0,0,0,0,0,
0,0,0,0,0,0,0,0,0,0,0,0,0,0,
0,0,0,0,0,0,0,0,0,0,0,0,0,0,
0,0,0,0,0,0,0,0,0,0,0,0,0,0,
0,0,0,0,0,0,0,0,0,0,0,0,0,0
</data>
 </layer>
 <imagelayer id="2" name="awakening" opacity="0.97" offsetx="40" offsety="40">
  <image source="../../../../assets/sprites/backgrounds/wakeup.png" width="506" height="364"/>
 </imagelayer>
 <objectgroup color="#0000ff" id="3" name="collisions">
  <object id="2" x="300" y="118" width="222" height="68"/>
  <object id="6" x="247.5" y="122.5" width="52" height="44.5"/>
  <object id="41" x="187" y="122" width="66" height="62"/>
  <object id="45" x="310" y="180.75" width="83" height="25.5"/>
  <object id="48" x="40" y="296" width="304" height="103.5"/>
  <object id="49" x="344" y="312" width="16" height="95.5"/>
  <object id="50" x="358" y="404" width="166" height="25"/>
  <object id="51" x="522" y="386" width="26" height="18"/>
  <object id="52" x="522" y="98" width="27" height="182"/>
  <object id="54" x="40" y="124" width="86.5" height="96">
   <properties>
    <property name="cutscene" value="shelter.uiopen"/>
   </properties>
  </object>
  <object id="57" x="144.5" y="119.5" width="45.5" height="112"/>
  <object id="58" x="0" y="40" width="40" height="360"/>
  <object id="71" x="360" y="312">
   <polygon points="0,0 -16,-16 -16,0"/>
  </object>
 </objectgroup>
 <objectgroup color="#ff00ff" id="5" name="objects">
  <object id="64" name="interactable" x="40.75" y="102.75" width="151.25" height="130.75">
   <properties>
    <property name="cutscene" value="device.devicetalk"/>
   </properties>
  </object>
  <object id="73" name="transition" x="546.054" y="280.035" width="32.0435" height="107">
   <properties>
    <property name="map" value="shelter/mainroom"/>
    <property name="marker" value="awaken"/>
   </properties>
  </object>
  <object id="78" name="script" x="191.701" y="165.33" width="36.25" height="130.75">
   <properties>
    <property name="cutscene" value="device.device"/>
    <property name="once" type="bool" value="false"/>
   </properties>
  </object>
 </objectgroup>
 <objectgroup color="#7f00ff" id="4" name="markers">
  <object id="7" name="spawn" x="360" y="240">
   <point/>
  </object>
  <object id="61" name="awakeningdoor" x="490" y="334">
   <point/>
  </object>
  <object id="74" name="susie1" x="99.5" y="246.25">
   <point/>
  </object>
  <object id="75" name="noelle1" x="140.318" y="279.75">
   <point/>
  </object>
  <object id="76" name="kris1" x="200.057" y="251.159">
   <point/>
  </object>
 </objectgroup>
</map>
