<?xml version="1.0" encoding="UTF-8"?>
<map version="1.10" tiledversion="1.11.2" orientation="orthogonal" renderorder="right-down" width="18" height="11" tilewidth="40" tileheight="40" infinite="0" nextlayerid="6" nextobjectid="69">
 <editorsettings>
  <export target="mainroom.lua" format="lua"/>
 </editorsettings>
 <properties>
  <property name="border" value="shelter"/>
  <property name="light" type="bool" value="true"/>
  <property name="music" value="in-the-shelter"/>
 </properties>
 <layer id="1" name="Tile Layer 1" width="18" height="11">
  <data encoding="csv">
0,0,0,0,0,0,0,0,0,0,0,0,0,0,0,0,0,0,
0,0,0,0,0,0,0,0,0,0,0,0,0,0,0,0,0,0,
0,0,0,0,0,0,0,0,0,0,0,0,0,0,0,0,0,0,
0,0,0,0,0,0,0,0,0,0,0,0,0,0,0,0,0,0,
0,0,0,0,0,0,0,0,0,0,0,0,0,0,0,0,0,0,
0,0,0,0,0,0,0,0,0,0,0,0,0,0,0,0,0,0,
0,0,0,0,0,0,0,0,0,0,0,0,0,0,0,0,0,0,
0,0,0,0,0,0,0,0,0,0,0,0,0,0,0,0,0,0,
0,0,0,0,0,0,0,0,0,0,0,0,0,0,0,0,0,0,
0,0,0,0,0,0,0,0,0,0,0,0,0,0,0,0,0,0,
0,0,0,0,0,0,0,0,0,0,0,0,0,0,0,0,0,0
</data>
 </layer>
 <imagelayer id="2" name="mainroom" offsetx="0" offsety="40">
  <image source="../../../../assets/sprites/backgrounds/mainroom.png" width="706" height="422"/>
 </imagelayer>
 <objectgroup color="#0000ff" id="3" name="collisions">
  <object id="3" x="134" y="142.5" width="152" height="41.5"/>
  <object id="8" x="288" y="121" width="280.5" height="42.5"/>
  <object id="12" x="-44" y="388" width="314" height="72"/>
  <object id="15" x="264.052" y="459.695" width="173" height="34.5"/>
  <object id="22" x="426" y="390" width="278" height="72.2805"/>
  <object id="24" x="708" y="172" width="26" height="134"/>
  <object id="30" x="110" y="76" width="84" height="108"/>
  <object id="32" x="568" y="188" width="44.1227" height="11.3073">
   <polygon points="4,-22 46,-22 46,20"/>
  </object>
  <object id="33" x="656" y="334" width="145.5" height="37.5">
   <polygon points="4,-78 46,-36 46,-78"/>
  </object>
  <object id="51" x="0" y="252" width="15.1364" height="46.6818">
   <polygon points="0,0 48,0 0,48"/>
  </object>
  <object id="56" x="100.977" y="153.023" width="15.1364" height="46.6818">
   <polygon points="-12.977,34.977 11.023,34.977 -12.977,58.977"/>
  </object>
  <object id="58" x="-9" y="301" width="14" height="86"/>
  <object id="59" x="702" y="298" width="8" height="93"/>
 </objectgroup>
 <objectgroup color="#ff00ff" id="5" name="objects">
  <object id="31" name="transition" x="72" y="176" width="38.5" height="64.1781">
   <properties>
    <property name="map" value="shelter/awakening"/>
    <property name="marker" value="awakeningdoor"/>
   </properties>
   <polygon points="-24,-18 10,-50 10,42 -24,76"/>
  </object>
  <object id="35" name="transition" x="600" y="200" width="35.3229" height="81.5">
   <properties>
    <property name="map" value="shelter/hallway"/>
   </properties>
   <polygon points="14,8 58,8 58,52"/>
  </object>
  <object id="40" name="cameratarget" x="-120.667" y="24.7273" width="920.667" height="416.667" visible="0">
   <properties>
    <property name="lockx" type="bool" value="false"/>
    <property name="locky" type="bool" value="true"/>
    <property name="marker" value="camfocus"/>
    <property name="time" type="float" value="0.1"/>
   </properties>
  </object>
  <object id="60" name="interactable" x="263.955" y="455.485" width="173.273" height="76">
   <properties>
    <property name="text1" value="* Too late to go back."/>
   </properties>
  </object>
  <object id="66" name="interactable" x="216.333" y="142.667" width="31.6667" height="50.6667">
   <properties>
    <property name="cutscene" value="nightCutscenes.paper"/>
   </properties>
  </object>
  <object id="67" name="interactable" x="495.667" y="135" width="34.6667" height="32.6667">
   <properties>
    <property name="cutscene" value="nightCutscenes.coat"/>
   </properties>
  </object>
  <object id="68" name="interactable" x="437.458" y="138.812" width="53.3334" height="32.6667">
   <properties>
    <property name="cutscene" value="nightCutscenes.locked"/>
   </properties>
  </object>
 </objectgroup>
 <objectgroup color="#7f00ff" id="4" name="markers">
  <object id="1" name="spawn" x="350.14" y="374.617">
   <point/>
  </object>
  <object id="38" name="mainroomdoor" x="578.5" y="251.5">
   <point/>
  </object>
  <object id="39" name="camfocus" x="350" y="224">
   <point/>
  </object>
  <object id="47" name="awaken" x="133" y="254.5">
   <point/>
  </object>
 </objectgroup>
</map>
