<?xml version="1.0" encoding="UTF-8"?>
<map version="1.10" tiledversion="1.11.2" orientation="orthogonal" renderorder="right-down" width="24" height="11" tilewidth="40" tileheight="40" infinite="0" nextlayerid="7" nextobjectid="33">
 <editorsettings>
  <export target="omnisroomold.lua" format="lua"/>
 </editorsettings>
 <properties>
  <property name="border" value="shelter"/>
  <property name="light" type="bool" value="true"/>
  <property name="music" value="in-the-shelter"/>
 </properties>
 <imagelayer id="3" name="omnisroomold" offsetx="290" offsety="150">
  <image source="../../../../assets/sprites/backgrounds/omnisroomold.png" width="396" height="294"/>
 </imagelayer>
 <layer id="1" name="Tile Layer 1" width="24" height="11">
  <data encoding="csv">
0,0,0,0,0,0,0,0,0,0,0,0,0,0,0,0,0,0,0,0,0,0,0,0,
0,0,0,0,0,0,0,0,0,0,0,0,0,0,0,0,0,0,0,0,0,0,0,0,
0,0,0,0,0,0,0,0,0,0,0,0,0,0,0,0,0,0,0,0,0,0,0,0,
0,0,0,0,0,0,0,0,0,0,0,0,0,0,0,0,0,0,0,0,0,0,0,0,
0,0,0,0,0,0,0,0,0,0,0,0,0,0,0,0,0,0,0,0,0,0,0,0,
0,0,0,0,0,0,0,0,0,0,0,0,0,0,0,0,0,0,0,0,0,0,0,0,
0,0,0,0,0,0,0,0,0,0,0,0,0,0,0,0,0,0,0,0,0,0,0,0,
0,0,0,0,0,0,0,0,0,0,0,0,0,0,0,0,0,0,0,0,0,0,0,0,
0,0,0,0,0,0,0,0,0,0,0,0,0,0,0,0,0,0,0,0,0,0,0,0,
0,0,0,0,0,0,0,0,0,0,0,0,0,0,0,0,0,0,0,0,0,0,0,0,
0,0,0,0,0,0,0,0,0,0,0,0,0,0,0,0,0,0,0,0,0,0,0,0
</data>
 </layer>
 <objectgroup id="4" name="collisions">
  <object id="5" x="290.5" y="407" width="231.5" height="38.5"/>
  <object id="6" x="238.5" y="144" width="50.5" height="309.5"/>
  <object id="7" x="242.5" y="92.5" width="452" height="56.5"/>
  <object id="9" x="686" y="100.5" width="92.5" height="360"/>
  <object id="10" x="584.5" y="407" width="127" height="90.5"/>
  <object id="11" x="290.5" y="361" width="46" height="44.5"/>
  <object id="13" x="641.5" y="189" width="40.5" height="99"/>
  <object id="16" x="433" y="147.5" width="12.5" height="176"/>
  <object id="18" x="324" y="188.5" width="76.5" height="145.5"/>
  <object id="20" x="445" y="187" width="169.5" height="82"/>
  <object id="23" x="616" y="179.5" width="24.5" height="98"/>
  <object id="24" x="283" y="135" width="40.5" height="113.5"/>
  <object id="25" x="396" y="135.5" width="39" height="113.5"/>
 </objectgroup>
 <objectgroup id="6" name="objects">
  <object id="22" name="transition" x="513.955" y="440.227" width="75" height="37.5">
   <properties>
    <property name="exit_sound" value="doorclose"/>
    <property name="map" value="shelter/hallway"/>
    <property name="marker" value="omnisroomold"/>
    <property name="sound" value="dooropen"/>
   </properties>
  </object>
 </objectgroup>
 <objectgroup id="5" name="markers">
  <object id="21" name="spawn" x="552.5" y="393">
   <point/>
  </object>
 </objectgroup>
</map>
