<?xml version="1.0" encoding="UTF-8"?>
<map version="1.10" tiledversion="1.11.2" orientation="orthogonal" renderorder="right-down" width="34" height="24" tilewidth="32" tileheight="32" infinite="0" nextlayerid="9" nextobjectid="162">
 <editorsettings>
  <export target="data.lua" format="lua"/>
 </editorsettings>
 <properties>
  <property name="border" value="leaves"/>
  <property name="light" type="bool" value="true"/>
  <property name="music" value="noellehouse"/>
 </properties>
 <imagelayer id="2" name="house" offsetx="0.329167" offsety="-0.672222">
  <image source="../../../../../assets/sprites/backgrounds/noelle hallway.png" width="1089" height="788"/>
 </imagelayer>
 <layer id="1" name="Tile Layer 1" width="34" height="24">
  <data encoding="csv">
0,0,0,0,0,0,0,0,0,0,0,0,0,0,0,0,0,0,0,0,0,0,0,0,0,0,0,0,0,0,0,0,0,0,
0,0,0,0,0,0,0,0,0,0,0,0,0,0,0,0,0,0,0,0,0,0,0,0,0,0,0,0,0,0,0,0,0,0,
0,0,0,0,0,0,0,0,0,0,0,0,0,0,0,0,0,0,0,0,0,0,0,0,0,0,0,0,0,0,0,0,0,0,
0,0,0,0,0,0,0,0,0,0,0,0,0,0,0,0,0,0,0,0,0,0,0,0,0,0,0,0,0,0,0,0,0,0,
0,0,0,0,0,0,0,0,0,0,0,0,0,0,0,0,0,0,0,0,0,0,0,0,0,0,0,0,0,0,0,0,0,0,
0,0,0,0,0,0,0,0,0,0,0,0,0,0,0,0,0,0,0,0,0,0,0,0,0,0,0,0,0,0,0,0,0,0,
0,0,0,0,0,0,0,0,0,0,0,0,0,0,0,0,0,0,0,0,0,0,0,0,0,0,0,0,0,0,0,0,0,0,
0,0,0,0,0,0,0,0,0,0,0,0,0,0,0,0,0,0,0,0,0,0,0,0,0,0,0,0,0,0,0,0,0,0,
0,0,0,0,0,0,0,0,0,0,0,0,0,0,0,0,0,0,0,0,0,0,0,0,0,0,0,0,0,0,0,0,0,0,
0,0,0,0,0,0,0,0,0,0,0,0,0,0,0,0,0,0,0,0,0,0,0,0,0,0,0,0,0,0,0,0,0,0,
0,0,0,0,0,0,0,0,0,0,0,0,0,0,0,0,0,0,0,0,0,0,0,0,0,0,0,0,0,0,0,0,0,0,
0,0,0,0,0,0,0,0,0,0,0,0,0,0,0,0,0,0,0,0,0,0,0,0,0,0,0,0,0,0,0,0,0,0,
0,0,0,0,0,0,0,0,0,0,0,0,0,0,0,0,0,0,0,0,0,0,0,0,0,0,0,0,0,0,0,0,0,0,
0,0,0,0,0,0,0,0,0,0,0,0,0,0,0,0,0,0,0,0,0,0,0,0,0,0,0,0,0,0,0,0,0,0,
0,0,0,0,0,0,0,0,0,0,0,0,0,0,0,0,0,0,0,0,0,0,0,0,0,0,0,0,0,0,0,0,0,0,
0,0,0,0,0,0,0,0,0,0,0,0,0,0,0,0,0,0,0,0,0,0,0,0,0,0,0,0,0,0,0,0,0,0,
0,0,0,0,0,0,0,0,0,0,0,0,0,0,0,0,0,0,0,0,0,0,0,0,0,0,0,0,0,0,0,0,0,0,
0,0,0,0,0,0,0,0,0,0,0,0,0,0,0,0,0,0,0,0,0,0,0,0,0,0,0,0,0,0,0,0,0,0,
0,0,0,0,0,0,0,0,0,0,0,0,0,0,0,0,0,0,0,0,0,0,0,0,0,0,0,0,0,0,0,0,0,0,
0,0,0,0,0,0,0,0,0,0,0,0,0,0,0,0,0,0,0,0,0,0,0,0,0,0,0,0,0,0,0,0,0,0,
0,0,0,0,0,0,0,0,0,0,0,0,0,0,0,0,0,0,0,0,0,0,0,0,0,0,0,0,0,0,0,0,0,0,
0,0,0,0,0,0,0,0,0,0,0,0,0,0,0,0,0,0,0,0,0,0,0,0,0,0,0,0,0,0,0,0,0,0,
0,0,0,0,0,0,0,0,0,0,0,0,0,0,0,0,0,0,0,0,0,0,0,0,0,0,0,0,0,0,0,0,0,0,
0,0,0,0,0,0,0,0,0,0,0,0,0,0,0,0,0,0,0,0,0,0,0,0,0,0,0,0,0,0,0,0,0,0
</data>
 </layer>
 <objectgroup id="6" name="collisions">
  <object id="134" x="168" y="637.333">
   <polyline points="0,0 102,-104.667"/>
  </object>
  <object id="135" x="318" y="486.667">
   <polyline points="0,0 99.3372,-100.008"/>
  </object>
  <object id="136" x="417.329" y="386.658">
   <polyline points="0,0 146.004,-143.991"/>
  </object>
  <object id="140" x="563.375" y="242.625">
   <polyline points="0,0 53.7614,-53.7415"/>
  </object>
  <object id="144" x="116.977" y="686.967">
   <polyline points="0,0 51.063,-49.6464"/>
  </object>
  <object id="145" x="270.063" y="532.438">
   <polyline points="0,0 48.5114,-46.1165"/>
  </object>
  <object id="156" x="617.636" y="188.364">
   <polyline points="0,0 18.5455,-18.5455 78,-18.9091"/>
  </object>
  <object id="159" x="786.36" y="153.27">
   <polyline points="0,0 0,16.1818 143.273,16.1818 -448.727,610 -742.727,610 -669.273,534.364"/>
  </object>
  <object id="161" x="695.82" y="169.64">
   <polyline points="0,0 0,-16.3636"/>
  </object>
 </objectgroup>
 <objectgroup id="4" name="markers">
  <object id="2" name="spawn" x="740" y="215">
   <point/>
  </object>
  <object id="155" name="room" x="477" y="377.75">
   <point/>
  </object>
 </objectgroup>
 <objectgroup id="8" name="objects">
  <object id="115" name="transition" x="694.29" y="116.757" width="92.5" height="36.5">
   <properties>
    <property name="map" value="noelles house/kitchen"/>
    <property name="marker" value="upstairs"/>
   </properties>
  </object>
  <object id="143" name="interactable" x="562.188" y="166.146" width="53.875" height="75.125">
   <properties>
    <property name="cutscene" value="houseText.parentroom"/>
    <property name="solid" type="bool" value="false"/>
   </properties>
  </object>
  <object id="149" name="interactable" x="264.699" y="461.528" width="53.875" height="75.125">
   <properties>
    <property name="cutscene" value="houseText.dessroom"/>
    <property name="solid" type="bool" value="false"/>
   </properties>
  </object>
  <object id="150" name="interactable" x="114.335" y="612.256" width="53.875" height="75.125">
   <properties>
    <property name="cutscene" value="houseText.bathroom"/>
    <property name="solid" type="bool" value="false"/>
   </properties>
  </object>
  <object id="154" name="interactable" x="416.438" y="316.313" width="53.875" height="75.125">
   <properties>
    <property name="cutscene" value="houseText.noelleroom"/>
    <property name="solid" type="bool" value="false"/>
   </properties>
  </object>
 </objectgroup>
</map>
