<?xml version="1.0" encoding="UTF-8"?>
<map version="1.10" tiledversion="1.11.2" orientation="orthogonal" renderorder="right-down" width="25" height="16" tilewidth="32" tileheight="32" infinite="0" nextlayerid="9" nextobjectid="147">
 <editorsettings>
  <export target="data.lua" format="lua"/>
 </editorsettings>
 <properties>
  <property name="light" type="bool" value="true"/>
  <property name="music" value="noellehouse"/>
 </properties>
 <imagelayer id="2" name="house" offsetx="-0.00416667" offsety="-0.00555556">
  <image source="../../../../../assets/sprites/backgrounds/noellekitchen normal.png" width="800" height="520"/>
 </imagelayer>
 <layer id="1" name="Tile Layer 1" width="25" height="16">
  <data encoding="csv">
0,0,0,0,0,0,0,0,0,0,0,0,0,0,0,0,0,0,0,0,0,0,0,0,0,
0,0,0,0,0,0,0,0,0,0,0,0,0,0,0,0,0,0,0,0,0,0,0,0,0,
0,0,0,0,0,0,0,0,0,0,0,0,0,0,0,0,0,0,0,0,0,0,0,0,0,
0,0,0,0,0,0,0,0,0,0,0,0,0,0,0,0,0,0,0,0,0,0,0,0,0,
0,0,0,0,0,0,0,0,0,0,0,0,0,0,0,0,0,0,0,0,0,0,0,0,0,
0,0,0,0,0,0,0,0,0,0,0,0,0,0,0,0,0,0,0,0,0,0,0,0,0,
0,0,0,0,0,0,0,0,0,0,0,0,0,0,0,0,0,0,0,0,0,0,0,0,0,
0,0,0,0,0,0,0,0,0,0,0,0,0,0,0,0,0,0,0,0,0,0,0,0,0,
0,0,0,0,0,0,0,0,0,0,0,0,0,0,0,0,0,0,0,0,0,0,0,0,0,
0,0,0,0,0,0,0,0,0,0,0,0,0,0,0,0,0,0,0,0,0,0,0,0,0,
0,0,0,0,0,0,0,0,0,0,0,0,0,0,0,0,0,0,0,0,0,0,0,0,0,
0,0,0,0,0,0,0,0,0,0,0,0,0,0,0,0,0,0,0,0,0,0,0,0,0,
0,0,0,0,0,0,0,0,0,0,0,0,0,0,0,0,0,0,0,0,0,0,0,0,0,
0,0,0,0,0,0,0,0,0,0,0,0,0,0,0,0,0,0,0,0,0,0,0,0,0,
0,0,0,0,0,0,0,0,0,0,0,0,0,0,0,0,0,0,0,0,0,0,0,0,0,
0,0,0,0,0,0,0,0,0,0,0,0,0,0,0,0,0,0,0,0,0,0,0,0,0
</data>
 </layer>
 <objectgroup id="6" name="collisions">
  <object id="89" x="277.626" y="310.281" width="268.667" height="60"/>
  <object id="130" x="797.333" y="283.333">
   <polyline points="0,0 -78,0.666667 -76.6667,-222"/>
  </object>
  <object id="131" x="238" y="518.667">
   <polyline points="0,0 1.33333,-79.3333 403.333,-80 482.667,-158 561.333,-158"/>
  </object>
  <object id="135" x="547.636" y="170.182">
   <polyline points="0,0 0.181818,201.455 -269.455,202 -269.818,200"/>
  </object>
  <object id="136" x="552.182" y="342">
   <polygon points="0,0 10,7.81818 13.6364,8 13.8182,12.1818 10,16.3636 17.0909,23.4545 25.0909,17.0909 21.8182,12.1818 22,8.36364 24.9091,8.36364 35.8182,-0.181818 35.8182,-13.2727 25.4545,-22.1818 10,-22.1818 0,-14.1818"/>
  </object>
  <object id="137" x="552" y="288.182">
   <polygon points="0,0 10,7.81818 13.6364,8 13.8182,12.1818 10,16.3636 17.0909,23.4545 25.0909,17.0909 21.8182,12.1818 22,8.36364 24.9091,8.36364 35.8182,-0.181818 35.8182,-13.2727 25.4545,-22.1818 10,-22.1818 0,-14.1818"/>
  </object>
  <object id="138" x="552.063" y="236.25">
   <polygon points="0,0 10,7.81818 13.6364,8 13.8182,12.1818 10,16.3636 17.0909,23.4545 25.0909,17.0909 21.8182,12.1818 22,8.36364 24.9091,8.36364 35.8182,-0.181818 35.8182,-13.2727 25.4545,-22.1818 10,-22.1818 0,-14.1818"/>
  </object>
  <object id="140" x="547.25" y="197.5">
   <polyline points="0,0 71.25,0.5 71.25,-50.5 164.5,-50 164.75,2.25 172.25,2.25"/>
  </object>
  <object id="143" x="160" y="512.13">
   <polyline points="0,0 -0.125,-311.875 7.875,-311.875 7.875,-278.25 88.375,-278.625 88.625,-312.25 119.875,-312.125 120.125,-292.375 121.875,-292.25 121.875,-290.25 341.75,-290.125 341.5,-202"/>
  </object>
 </objectgroup>
 <objectgroup id="4" name="markers">
  <object id="1" name="spawn1" x="38.5" y="310.5">
   <point/>
  </object>
  <object id="2" name="upstairs" x="663" y="221.5">
   <point/>
  </object>
  <object id="3" name="susie1" x="535" y="225">
   <point/>
  </object>
  <object id="19" name="susie4" x="556.667" y="209.333">
   <point/>
  </object>
  <object id="25" name="spawn" x="768" y="330">
   <point/>
  </object>
 </objectgroup>
 <objectgroup id="8" name="objects">
  <object id="115" name="transition" x="619.538" y="148.174" width="90.5" height="36.5">
   <properties>
    <property name="map" value="noelles house/hallway"/>
    <property name="marker" value="spawn"/>
   </properties>
  </object>
  <object id="123" name="transition" x="797.58" y="281.75" width="14.5" height="80.5">
   <properties>
    <property name="map" value="noelles house/living room/livingroom"/>
    <property name="marker" value="spawn1"/>
   </properties>
  </object>
  <object id="132" name="interactable" x="152.125" y="512.125" width="95.5" height="36.5">
   <properties>
    <property name="cutscene" value="nightCutscenes.workRoom"/>
    <property name="solid" type="bool" value="true"/>
   </properties>
  </object>
  <object id="144" name="interactable" x="165.979" y="181.782" width="84.5" height="53.2083">
   <properties>
    <property name="text1" value="* It's a fridge.[wait:5] Nothing of interest here."/>
   </properties>
  </object>
  <object id="145" name="interactable" x="306.937" y="172.5" width="53.5" height="51.3333">
   <properties>
    <property name="text1">* It's a sink.
* You don't need to wash your hands.</property>
   </properties>
  </object>
  <object id="146" name="interactable" x="495.187" y="237.5" width="53.5" height="51.3333">
   <properties>
    <property name="text1" value="* Someone's left a drink on the counter."/>
   </properties>
  </object>
 </objectgroup>
</map>
